X: 259
T: Cousin Sally Brown [1]
B: canberra pickers and fiddlers
B: tunes
M:4/4
L:1/8
Q: 1/4=100
K:Adorian
V:1 
|:AcAG EDCD|EGED CA,2A,- |A,EGE ED[CE]D|[G,E][G,2G2]A [G,2G2]EG|
ABAG EDCD|EGED CA,3|EGAG EDCD|EA2B A4:|
|:"*"ABcd +slide+[e2e2][ee][ef]|[ee][de][ce][de] [e2e2][e2e2]|geae gecd|ea2ba3(a|
a)bag edcd| e2e2dcAB|cABc AGED |EA2B A4:|
% abcbook-tune_id 63ae8f1c09869fd7330313c3
% abcbook-tune_composer_id 
% abcbook-link-0 https://www.youtube.com/watch?v=Hyawt5UvzoU
% abcbook-boost 0
% abcbook-difficulty 0
% abcbook-tags canberra pickers and fiddlers,old time tunes,steve ryan,© free
% abcbook-tablature 
% abcbook-transpose 
% abcbook-tuning GDAE
% abcbook-lastupdated 1694511553644
% abcbook-src-url https://tunebook.net/scrape/tunes.abc
% abcbook-soundfonts 
% abcbook-repeats 1


